; generated by PrusaSlicer 2.5.0+win64 on 2022-12-09 at 10:40:39 UTC


;
;
; 

; external perimeters extrusion width = 0.45mm
; perimeters extrusion width = 0.45mm
; infill extrusion width = 0.45mm
; solid infill extrusion width = 0.45mm
; top infill extrusion width = 0.40mm
; first layer extrusion width = 0.42mm

M73 P0 R127
M73 Q0 S131
M201 X1000 Y1000 Z200 E5000 ; sets maximum accelerations, mm/sec^2
M203 X200 Y200 Z12 E120 ; sets maximum feedrates, mm / sec
M204 P1250 R1250 T1250 ; sets acceleration (P, T) and retract acceleration (R), mm/sec^2
M205 X8.00 Y8.00 Z0.40 E4.50 ; sets the jerk limits, mm/sec
M205 S0 T0 ; sets the minimum extruding and travel feed rate, mm/sec
M107
;TYPE:Custom
M862.3 P "MK3S" ; printer model check
M862.1 P0.4 ; nozzle diameter check
M115 U3.11.0 ; tell printer latest fw version
G90 ; use absolute coordinates
M83 ; extruder relative mode
M104 S215 ; set extruder temp
M140 S60 ; set bed temp
M190 S60 ; wait for bed temp
M109 S215 ; wait for extruder temp
G28 W ; home all without mesh bed level
G80 ; mesh bed leveling

G1 Z0.2 F720
G1 Y-3 F1000 ; go outside print area
G92 E0
G1 X60 E9 F1000 ; intro line
G1 X100 E12.5 F1000 ; intro line

G92 E0
M221 S95

; Don't change E values below. Excessive value can damage the printer.

M907 E538 ; set extruder motor current
G21 ; set units to millimeters
G90 ; use absolute coordinates
M83 ; use relative distances for extrusion
M900 K0.05 ; Filament gcode LA 1.5
M900 K30 ; Filament gcode LA 1.0
M107
;LAYER_CHANGE
;Z:0.2
;HEIGHT:0.2
;BEFORE_LAYER_CHANGE
G92 E0.0
;0.2


G1 E-.8 F2100
M73 Q0 S130
G1 Z.4 F720
;AFTER_LAYER_CHANGE
;0.2
G1 X86.552 Y42.312 F10800
G1 Z.2 F720
G1 E.8 F2100
M204 S800
;TYPE:Skirt/Brim
;WIDTH:0.42
G1 F1200
G1 X87.014 Y41.659 E.02511
G1 X90.002 Y38.671 E.13247
G1 X91.683 Y37.975 E.05704
G1 X158.325 Y37.975 E2.08951
G1 X160.006 Y38.671 E.05704
G1 X162.993 Y41.659 E.13247
G1 X163.456 Y42.312 E.02512
G1 X182.577 Y82.227 E1.38767
G1 X183.512 Y84.366 E.0732
G1 X184.995 Y88.299 E.13181
G1 X186.237 Y92.407 E.13455
G1 X186.786 Y94.634 E.07192
G1 X187.237 Y96.795 E.0692
G1 X187.882 Y100.908 E.13054
G1 X188.273 Y105.35 E.13982
G1 X188.35 Y107.555 E.06919
G1 X188.287 Y111.718 E.13054
G1 X187.916 Y116.162 E.13983
G1 X187.617 Y118.349 E.06919
G1 X186.846 Y122.44 E.13054
G1 X185.725 Y126.756 E.13982
G1 X185.058 Y128.86 E.06919
G1 X183.603 Y132.761 E.13054
G1 X181.763 Y136.823 E.13982
G1 X180.26 Y139.654 E.1005
G1 X178.629 Y142.414 E.1005
G1 X177.372 Y144.333 E.07193
G1 X174.893 Y147.728 E.13181
G1 X173.446 Y149.508 E.07193
G1 X170.632 Y152.631 E.13182
G1 X169.01 Y154.254 E.07193
G1 X165.922 Y157.045 E.13054
G1 X164.112 Y158.52 E.0732
G1 X160.754 Y160.981 E.13054
G1 X156.951 Y163.387 E.1411
G1 X153.289 Y165.367 E.13054
G1 X151.218 Y166.354 E.07193
G1 X147.335 Y167.966 E.13181
G1 X145.174 Y168.736 E.07193
G1 X143.07 Y169.402 E.0692
G1 X139.003 Y170.467 E.13181
G1 X136.757 Y170.933 E.07193
G1 X132.602 Y171.576 E.13181
G1 X130.32 Y171.809 E.07193
G1 X126.122 Y172.023 E.13181
G1 X123.828 Y172.022 E.07193
G1 X119.67 Y171.808 E.13054
G1 X115.202 Y171.271 E.1411
G1 X111.112 Y170.492 E.13054
G1 X108.844 Y169.939 E.0732
G1 X104.855 Y168.745 E.13054
G1 X102.694 Y167.977 E.07193
G1 X98.81 Y166.367 E.13181
G1 X96.739 Y165.381 E.07193
G1 X93.005 Y163.362 E.13309
G1 X89.344 Y161.048 E.13582
G1 X85.848 Y158.489 E.13582
G1 X82.566 Y155.725 E.13455
G1 X80.862 Y154.129 E.0732
G1 X77.859 Y151.007 E.13582
G1 X75.101 Y147.72 E.13455
G1 X72.55 Y144.219 E.13582
G1 X70.244 Y140.552 E.13582
G1 X68.232 Y136.814 E.13309
G1 X66.442 Y132.87 E.13582
G1 X64.939 Y128.851 E.13455
G1 X64.236 Y126.624 E.0732
G1 X63.152 Y122.431 E.13582
G1 X62.362 Y118.213 E.13454
G1 X61.857 Y113.911 E.13582
G1 X61.649 Y109.712 E.13181
G1 X61.652 Y107.418 E.07193
G1 X61.875 Y103.22 E.13181
G1 X62.114 Y100.938 E.07193
G1 X62.765 Y96.785 E.13181
G1 X63.236 Y94.54 E.07193
G1 X64.31 Y90.475 E.13181
G1 X65.008 Y88.29 E.07193
G1 X66.492 Y84.357 E.13181
G1 X67.427 Y82.218 E.0732
G1 X86.526 Y42.366 E1.38559
M204 S1000
;WIPE_START
G1 F8640
G1 X87.014 Y41.659 E-.19857
G1 X88.734 Y39.939 E-.56143
;WIPE_END
G1 E-.04 F2100
G1 Z.6 F720
G1 X89.298 Y43.721 F10800
G1 Z.2 F720
G1 E.8 F2100
M204 S800
G1 F1200
G1 X89.743 Y42.823 E.03141
G1 X90.541 Y41.895 E.03837
G1 X91.512 Y41.196 E.03752
G1 X93.355 Y40.638 E.06037
G1 X156.601 Y40.642 E1.98305
G1 X157.622 Y40.836 E.03256
G1 X158.6 Y41.252 E.03333
G1 X159.721 Y42.145 E.04494
G1 X160.531 Y43.3 E.04422
M73 P0 R126
G1 X160.979 Y44.699 E.04607
G1 X161.025 Y59.838 E.47467
G1 X162.339 Y60.82 E.05147
G1 X163.988 Y62.154 E.06648
G1 X165.526 Y63.488 E.06384
G1 X167.034 Y64.886 E.06448
G1 X168.51 Y66.353 E.06526
G1 X169.95 Y67.885 E.06591
G1 X171.342 Y69.474 E.06624
G1 X172.631 Y71.052 E.06388
G1 X173.861 Y72.664 E.06358
G1 X175.104 Y74.414 E.06732
G1 X176.226 Y76.116 E.06389
G1 X177.292 Y77.856 E.06398
G1 X178.328 Y79.686 E.06594
G1 X179.299 Y81.55 E.0659
G1 X180.197 Y83.427 E.06524
G1 X181.017 Y85.303 E.0642
G1 X181.803 Y87.282 E.06676
G1 X182.488 Y89.199 E.06383
G1 X183.106 Y91.13 E.06357
G1 X183.686 Y93.179 E.06676
G1 X184.183 Y95.201 E.06529
G1 X184.614 Y97.258 E.06587
G1 X184.963 Y99.261 E.06377
G1 X185.244 Y101.271 E.06363
G1 X185.466 Y103.386 E.0667
G1 X185.612 Y105.459 E.06515
G1 X185.687 Y107.565 E.06608
G1 X185.69 Y109.595 E.06362
G1 X185.625 Y111.627 E.06377
G1 X185.485 Y113.743 E.06649
G1 X185.275 Y115.815 E.06529
G1 X184.991 Y117.904 E.06608
G1 X184.648 Y119.906 E.06368
G1 X184.238 Y121.899 E.06382
G1 X183.742 Y123.952 E.06623
G1 X183.183 Y125.958 E.06529
G1 X182.548 Y127.97 E.06615
G1 X181.868 Y129.889 E.06383
G1 X181.123 Y131.789 E.06398
G1 X180.281 Y133.735 E.06649
G1 X179.403 Y135.588 E.06431
G1 X178.46 Y137.415 E.06445
G1 X177.441 Y139.235 E.06541
G1 X176.348 Y141.038 E.06609
G1 X175.225 Y142.754 E.0643
G1 X174.047 Y144.428 E.06419
G1 X172.767 Y146.121 E.06654
G1 X171.476 Y147.712 E.06425
G1 X170.129 Y149.262 E.06439
G1 X168.692 Y150.805 E.06609
G1 X167.201 Y152.298 E.06616
G1 X165.677 Y153.723 E.06541
G1 X164.133 Y155.07 E.06424
G1 X162.538 Y156.37 E.06451
G1 X160.856 Y157.647 E.06623
G1 X159.183 Y158.829 E.06424
G1 X157.452 Y159.966 E.06492
G1 X155.657 Y161.058 E.06589
G1 X153.862 Y162.069 E.06459
G1 X152.036 Y163.016 E.0645
G1 X150.15 Y163.914 E.06548
G1 X148.241 Y164.744 E.06528
G1 X146.312 Y165.505 E.065
G1 X144.368 Y166.197 E.06471
G1 X142.377 Y166.829 E.06549
G1 X140.406 Y167.382 E.06419
G1 X138.382 Y167.876 E.06531
G1 X136.301 Y168.308 E.06665
G1 X134.301 Y168.653 E.06363
G1 X132.283 Y168.931 E.06388
G1 X130.16 Y169.15 E.06692
G1 X128.063 Y169.292 E.06589
G1 X126.024 Y169.361 E.06398
G1 X123.96 Y169.361 E.06471
G1 X121.842 Y169.287 E.06645
G1 X119.817 Y169.148 E.06364
G1 X117.784 Y168.939 E.06409
G1 X115.659 Y168.647 E.06726
G1 X113.645 Y168.298 E.06409
G1 X111.622 Y167.877 E.0648
G1 X109.585 Y167.379 E.06575
G1 X107.593 Y166.82 E.06487
G1 X105.63 Y166.196 E.06458
G1 X103.681 Y165.502 E.06486
G1 X101.737 Y164.735 E.06554
G1 X99.824 Y163.902 E.0654
G1 X97.968 Y163.018 E.06445
G1 X96.119 Y162.058 E.06534
G1 X94.316 Y161.043 E.06487
G1 X92.561 Y159.974 E.06444
G1 X90.833 Y158.84 E.06479
G1 X89.138 Y157.643 E.06506
G1 X87.47 Y156.376 E.06568
G1 X85.834 Y155.043 E.06617
G1 X84.258 Y153.663 E.06568
G1 X82.767 Y152.267 E.06403
G1 X81.307 Y150.804 E.0648
G1 X79.867 Y149.257 E.06629
G1 X78.527 Y147.715 E.06404
G1 X77.234 Y146.123 E.0643
G1 X75.951 Y144.426 E.06671
G1 X74.768 Y142.744 E.06446
G1 X73.643 Y141.024 E.06445
G1 X72.549 Y139.217 E.06622
G1 X71.548 Y137.43 E.06424
G1 X70.605 Y135.603 E.06446
G1 X69.697 Y133.687 E.06649
G1 X68.884 Y131.804 E.0643
G1 X68.13 Y129.885 E.06465
G1 X67.433 Y127.911 E.06562
G1 X66.814 Y125.949 E.06451
G1 X66.262 Y123.969 E.06445
G1 X65.768 Y121.928 E.06583
G1 X65.343 Y119.857 E.06629
G1 X65.001 Y117.849 E.06388
G1 X64.727 Y115.833 E.06378
G1 X64.514 Y113.724 E.06648
G1 X64.378 Y111.673 E.06445
G1 X64.311 Y109.609 E.06473
G1 X64.315 Y107.483 E.06667
G1 X64.392 Y105.395 E.06553
G1 X64.537 Y103.351 E.06424
G1 X64.754 Y101.294 E.06485
G1 X65.044 Y99.219 E.06569
G1 X65.4 Y97.188 E.06466
G1 X65.827 Y95.158 E.06505
G1 X66.32 Y93.157 E.0646
G1 X66.881 Y91.171 E.06471
G1 X67.521 Y89.172 E.06582
G1 X68.215 Y87.235 E.06451
G1 X68.979 Y85.312 E.06486
G1 X69.817 Y83.395 E.06561
G1 X70.708 Y81.534 E.0647
G1 X71.671 Y79.688 E.06527
G1 X72.686 Y77.894 E.06466
G1 X73.766 Y76.129 E.06486
G1 X74.907 Y74.398 E.06501
G1 X76.108 Y72.706 E.06506
G1 X77.374 Y71.045 E.06549
G1 X78.694 Y69.432 E.06535
G1 X80.062 Y67.873 E.06502
G1 X81.473 Y66.37 E.06465
G1 X82.936 Y64.915 E.0647
G1 X84.455 Y63.505 E.06499
G1 X86.012 Y62.154 E.06465
G1 X87.621 Y60.851 E.0649
G1 X88.982 Y59.834 E.05327
G1 X88.993 Y44.942 E.46693
G1 X89.284 Y43.779 E.03757
M204 S1000
G1 X89.649 Y43.87 F10800
M204 S800
G1 F1200
G1 X90.044 Y43.051 E.02852
G1 X90.812 Y42.159 E.03689
G1 X91.705 Y41.521 E.03442
G1 X93.382 Y41.015 E.05492
G1 X156.583 Y41.019 E1.98162
G1 X157.53 Y41.202 E.03023
G1 X158.427 Y41.588 E.03062
G1 X159.463 Y42.421 E.04169
G1 X160.204 Y43.49 E.04079
G1 X160.611 Y44.784 E.04253
G1 X160.648 Y60.027 E.47793
G1 X162.105 Y61.116 E.05704
G1 X163.748 Y62.445 E.06626
G1 X165.277 Y63.77 E.06344
G1 X166.77 Y65.156 E.06388
G1 X168.238 Y66.614 E.06486
G1 X169.668 Y68.136 E.0655
G1 X171.052 Y69.716 E.06584
G1 X172.334 Y71.283 E.06348
G1 X173.56 Y72.89 E.06338
G1 X174.791 Y74.625 E.06671
G1 X175.91 Y76.321 E.06369
G1 X176.968 Y78.05 E.06358
G1 X177.998 Y79.869 E.06554
G1 X178.964 Y81.721 E.06549
G1 X179.853 Y83.581 E.06464
G1 X180.668 Y85.445 E.06379
G1 X181.449 Y87.412 E.06635
G1 X182.13 Y89.317 E.06343
G1 X182.746 Y91.242 E.06337
G1 X183.32 Y93.272 E.06615
G1 X183.814 Y95.282 E.06489
G1 X184.243 Y97.325 E.06547
G1 X184.59 Y99.317 E.06337
G1 X184.87 Y101.32 E.06342
G1 X185.09 Y103.416 E.06609
G1 X185.235 Y105.476 E.06474
G1 X185.31 Y107.569 E.06568
G1 X185.313 Y109.586 E.06323
G1 X185.248 Y111.612 E.06357
G1 X185.109 Y113.709 E.06588
G1 X184.901 Y115.768 E.06489
G1 X184.619 Y117.843 E.06568
G1 X184.278 Y119.833 E.06328
G1 X183.869 Y121.82 E.06362
G1 X183.378 Y123.854 E.06562
G1 X182.823 Y125.848 E.06488
G1 X182.191 Y127.847 E.06574
G1 X181.514 Y129.76 E.06363
G1 X180.773 Y131.648 E.06358
G1 X179.939 Y133.576 E.06588
G1 X179.066 Y135.418 E.0639
G1 X178.127 Y137.239 E.06425
G1 X177.117 Y139.042 E.0648
G1 X176.031 Y140.834 E.06568
G1 X174.912 Y142.545 E.0641
G1 X173.741 Y144.209 E.06379
G1 X172.473 Y145.886 E.06593
G1 X171.185 Y147.472 E.06405
G1 X169.846 Y149.012 E.06399
G1 X168.423 Y150.541 E.06548
G1 X166.941 Y152.025 E.06575
G1 X165.427 Y153.441 E.06501
G1 X163.893 Y154.78 E.06384
G1 X162.308 Y156.071 E.0641
G1 X160.636 Y157.341 E.06582
G1 X158.973 Y158.516 E.06384
G1 X157.253 Y159.645 E.06451
G1 X155.469 Y160.731 E.06549
G1 X153.679 Y161.738 E.06439
G1 X151.865 Y162.68 E.0641
G1 X149.997 Y163.569 E.06488
G1 X148.099 Y164.394 E.06488
G1 X146.183 Y165.151 E.06459
G1 X144.251 Y165.838 E.0643
G1 X142.266 Y166.469 E.06528
G1 X140.307 Y167.018 E.06379
G1 X138.302 Y167.507 E.0647
G1 X136.234 Y167.937 E.06624
G1 X134.246 Y168.28 E.06323
G1 X132.234 Y168.557 E.06368
G1 X130.131 Y168.774 E.0663
G1 X128.047 Y168.916 E.06548
G1 X126.014 Y168.984 E.06378
G1 X123.97 Y168.984 E.0641
G1 X121.865 Y168.911 E.06604
G1 X119.847 Y168.772 E.06343
G1 X117.826 Y168.564 E.06369
G1 X115.72 Y168.274 E.06664
G1 X113.719 Y167.928 E.06369
G1 X111.708 Y167.51 E.0644
G1 X109.683 Y167.016 E.06534
G1 X107.704 Y166.46 E.06447
G1 X105.753 Y165.839 E.06418
G1 X103.81 Y165.148 E.06466
G1 X101.878 Y164.385 E.06513
G1 X99.983 Y163.56 E.0648
G1 X98.139 Y162.682 E.06405
G1 X96.295 Y161.725 E.06514
G1 X94.51 Y160.719 E.06426
G1 X92.76 Y159.653 E.06424
G1 X91.043 Y158.526 E.06439
G1 X89.359 Y157.337 E.06465
G1 X87.706 Y156.082 E.06507
G1 X86.08 Y154.757 E.06576
G1 X84.513 Y153.386 E.06527
G1 X83.032 Y151.999 E.06363
G1 X81.581 Y150.545 E.0644
G1 X80.149 Y149.007 E.06589
G1 X78.817 Y147.475 E.06364
G1 X77.533 Y145.893 E.0639
G1 X76.258 Y144.206 E.0663
G1 X75.079 Y142.53 E.06426
G1 X73.961 Y140.82 E.06405
G1 X72.876 Y139.03 E.06561
G1 X71.878 Y137.248 E.06404
G1 X70.941 Y135.433 E.06406
G1 X70.042 Y133.534 E.06588
G1 X69.234 Y131.663 E.0639
G1 X68.485 Y129.756 E.06425
G1 X67.792 Y127.795 E.06522
G1 X67.175 Y125.839 E.06431
G1 X66.626 Y123.871 E.06405
M73 Q0 S129
G1 X66.137 Y121.849 E.06522
G1 X65.714 Y119.791 E.06588
G1 X65.374 Y117.795 E.06348
G1 X65.101 Y115.786 E.06358
G1 X64.89 Y113.696 E.06587
G1 X64.754 Y111.657 E.06405
G1 X64.688 Y109.6 E.06452
G1 X64.692 Y107.494 E.06605
G1 X64.768 Y105.418 E.06512
G1 X64.912 Y103.387 E.06384
G1 X65.127 Y101.343 E.06445
G1 X65.416 Y99.281 E.06528
G1 X65.77 Y97.262 E.06426
G1 X66.194 Y95.245 E.06465
G1 X66.684 Y93.257 E.06419
G1 X67.243 Y91.277 E.06451
G1 X67.877 Y89.296 E.06521
G1 X68.569 Y87.365 E.0643
G1 X69.328 Y85.455 E.06446
G1 X70.159 Y83.555 E.065
G1 X71.044 Y81.706 E.0643
G1 X72.001 Y79.871 E.06486
G1 X73.013 Y78.082 E.06446
G1 X74.086 Y76.328 E.06446
G1 X75.22 Y74.608 E.0646
G1 X76.414 Y72.927 E.06466
G1 X77.668 Y71.281 E.06488
G1 X78.984 Y69.673 E.06515
G1 X80.343 Y68.124 E.06461
G1 X81.746 Y66.631 E.06424
G1 X83.2 Y65.185 E.06429
G1 X84.704 Y63.787 E.06438
G1 X86.257 Y62.441 E.06445
G1 X87.856 Y61.147 E.06448
G1 X89.359 Y60.022 E.05885
G1 X89.364 Y45.011 E.47068
G1 X89.635 Y43.929 E.03497
M204 S1000
G1 X90.001 Y44.02 F10800
M204 S800
G1 F1200
G1 X90.02 Y43.942 E.00252
G1 X90.346 Y43.279 E.02318
G1 X91.082 Y42.423 E.0354
G1 X91.897 Y41.847 E.03129
G1 X93.41 Y41.393 E.04952
G1 X156.564 Y41.396 E1.98017
G1 X157.436 Y41.568 E.02786
G1 X158.252 Y41.923 E.0279
G1 X159.203 Y42.696 E.03843
G1 X159.876 Y43.678 E.03735
G1 X160.242 Y44.867 E.039
G1 X160.271 Y60.216 E.48125
G1 X161.871 Y61.411 E.06261
G1 X163.509 Y62.736 E.06605
G1 X165.027 Y64.053 E.06303
G1 X166.507 Y65.426 E.06328
G1 X167.965 Y66.875 E.06445
G1 X169.387 Y68.387 E.06509
G1 X170.762 Y69.957 E.06543
G1 X172.04 Y71.519 E.06328
G1 X173.258 Y73.116 E.06298
G1 X174.478 Y74.835 E.0661
G1 X175.593 Y76.526 E.06349
G1 X176.645 Y78.244 E.06318
G1 X177.668 Y80.052 E.06513
G1 X178.628 Y81.893 E.06508
G1 X179.509 Y83.735 E.06403
G1 X180.319 Y85.587 E.06339
G1 X181.095 Y87.542 E.06595
G1 X181.774 Y89.441 E.06323
G1 X182.386 Y91.354 E.06297
G1 X182.955 Y93.365 E.06554
G1 X183.446 Y95.362 E.06448
G1 X183.872 Y97.393 E.06507
G1 X184.217 Y99.372 E.06297
G1 X184.496 Y101.369 E.06322
G1 X184.714 Y103.446 E.06548
G1 X184.859 Y105.499 E.06453
G1 X184.933 Y107.573 E.06507
G1 X184.936 Y109.577 E.06283
M73 P1 R126
G1 X184.871 Y111.597 E.06337
G1 X184.734 Y113.674 E.06527
G1 X184.527 Y115.72 E.06448
G1 X184.246 Y117.783 E.06528
G1 X183.907 Y119.766 E.06308
G1 X183.501 Y121.741 E.06323
G1 X183.014 Y123.756 E.06501
G1 X182.462 Y125.737 E.06447
G1 X181.834 Y127.724 E.06534
G1 X181.159 Y129.631 E.06343
G1 X180.423 Y131.507 E.06318
G1 X179.597 Y133.418 E.06527
G1 X178.727 Y135.254 E.0637
G1 X177.793 Y137.063 E.06385
G1 X176.789 Y138.855 E.0644
G1 X175.713 Y140.63 E.06507
G1 X174.598 Y142.336 E.0639
G1 X173.434 Y143.989 E.06339
G1 X172.178 Y145.651 E.06533
M73 Q1 S129
G1 X170.899 Y147.227 E.06365
G1 X169.564 Y148.763 E.06379
G1 X168.154 Y150.277 E.06487
G1 X166.681 Y151.752 E.06535
G1 X165.176 Y153.159 E.06461
G1 X163.652 Y154.489 E.06344
G1 X162.077 Y155.773 E.0637
G1 X160.415 Y157.035 E.06542
G1 X158.763 Y158.202 E.06344
G1 X157.054 Y159.325 E.06411
G1 X155.282 Y160.404 E.06508
G1 X153.503 Y161.405 E.06399
G1 X151.7 Y162.341 E.06369
G1 X149.843 Y163.225 E.06447
G1 X147.952 Y164.047 E.06468
G1 X146.053 Y164.797 E.06399
G1 X144.133 Y165.48 E.0639
G1 X142.155 Y166.108 E.06508
G1 X140.208 Y166.654 E.06339
G1 X138.223 Y167.139 E.0641
G1 X136.167 Y167.566 E.06584
G1 X134.192 Y167.907 E.06283
G1 X132.186 Y168.183 E.06348
G1 X130.102 Y168.398 E.06569
G1 X128.031 Y168.539 E.06508
G1 X126.005 Y168.607 E.06358
G1 X123.98 Y168.607 E.0635
G1 X121.888 Y168.535 E.06563
G1 X119.876 Y168.396 E.06323
G1 X117.874 Y168.19 E.06308
G1 X115.781 Y167.902 E.06624
G1 X113.792 Y167.558 E.06329
G1 X111.794 Y167.143 E.06399
G1 X109.782 Y166.652 E.06494
G1 X107.809 Y166.097 E.06426
G1 X105.877 Y165.483 E.06358
G1 X103.946 Y164.796 E.06425
